public/images/playstation.svg

<svg fill="none" height="90" viewBox="0 0 90 90" width="90" xmlns="http://www.w3.org/2000/svg"><path d="m84.6899 63.7912c-1.6125 2.0363-5.5575 3.4875-5.5575 3.4875l-29.3738 10.5638v-7.7925l21.615-7.7138c2.4563-.8775 2.8313-2.1224.8363-2.7749-1.9875-.6563-5.5913-.4688-8.0475.4162l-14.4 5.0775v-8.0813l.825-.2812s4.1625-1.4775 10.0162-2.1263c5.85-.645 13.02.0901 18.645 2.2238 6.3375 2.0063 7.05 4.9613 5.4413 6.9975zm-32.1375-13.2637v-19.92c0-2.34-.4275-4.4925-2.6213-5.1-1.6762-.54-2.7187 1.02-2.7187 3.3563v49.8862l-13.44-4.2712v-59.4788c5.715 1.0612 14.04 3.5738 18.5137 5.0813 11.3813 3.9112 15.24 8.7824 15.24 19.7512 0 10.6912-6.5925 14.745-14.97 10.695zm-43.43628 18.7125c-6.50625-1.8375-7.59-5.6625-4.62375-7.8637 2.74125-2.0325 7.40253-3.5626 7.40253-3.5626l19.2675-6.8625v7.8226l-13.8638 4.9687c-2.4487.8775-2.8275 2.1225-.8362 2.775 1.9912.6563 5.5987.4688 8.0512-.4125l6.6488-2.415v6.9938l-1.3238.225c-6.6525 1.0875-13.74.6337-20.72248-1.6688z" fill="#000"/></svg>

<svg width="90" height="90" viewBox="0 0 90 90" fill="none" xmlns="http://www.w3.org/2000/svg">
<path d="M84.6899 63.7912C83.0774 65.8275 79.1324 67.2787 79.1324 67.2787L49.7586 77.8425V70.05L71.3736 62.3362C73.8299 61.4587 74.2049 60.2138 72.2099 59.5613C70.2224 58.905 66.6186 59.0925 64.1624 59.9775L49.7624 65.055V56.9737L50.5874 56.6925C50.5874 56.6925 54.7499 55.215 60.6036 54.5662C66.4536 53.9212 73.6236 54.6563 79.2486 56.79C85.5861 58.7963 86.2986 61.7513 84.6899 63.7875V63.7912ZM52.5524 50.5275V30.6075C52.5524 28.2675 52.1249 26.115 49.9311 25.5075C48.2549 24.9675 47.2124 26.5275 47.2124 28.8638V78.75L33.7724 74.4788V15C39.4874 16.0612 47.8124 18.5738 52.2861 20.0813C63.6674 23.9925 67.5261 28.8637 67.5261 39.8325C67.5261 50.5237 60.9336 54.5775 52.5561 50.5275H52.5524ZM9.11612 69.24C2.60987 67.4025 1.52612 63.5775 4.49237 61.3763C7.23362 59.3438 11.8949 57.8137 11.8949 57.8137L31.1624 50.9512V58.7738L17.2986 63.7425C14.8499 64.62 14.4711 65.865 16.4624 66.5175C18.4536 67.1738 22.0611 66.9863 24.5136 66.105L31.1624 63.69V70.6838L29.8386 70.9088C23.1861 71.9963 16.0986 71.5425 9.11612 69.24V69.24Z" fill="black"/>
</svg>
